X:4138
T:McKennas (3)
O:england
R:Jig
S:Kevin Burke, London and Jackie Daly, Cork (fiddle and box)
D:From RTE 'The Pure Drop'
M:6/8
L:1/8
K:D
f2e dAA|BAB dBA|f2e dBA|Bdf e2d|
f2e dAA|BAB dBA|f2e dBA|Bdf e2d||
fdf g3|faf fed|~f3 gfg|afd e2d|
fdf g3|faf fed|f2e dBA|Bdf e2d||
